static/images/skills.svg

<svg height="29.606" viewBox="0 0 58.529 29.606" width="58.529" xmlns="http://www.w3.org/2000/svg"><path d="m143.358 103.186h-23.746a1.425 1.425 0 1 1 0-2.85h23.745a1.425 1.425 0 0 1 0 2.85" fill="#f29021" transform="translate(-92.738 -76.33)"/><path d="m74.8 57.9h-14.807a1.425 1.425 0 0 1 0-2.85h14.807a1.425 1.425 0 0 1 0 2.85" fill="#f29021" transform="translate(-43.204 -41.834)"/><g fill="none"><path d="m80.864 53.806h-27.777a2.673 2.673 0 1 1 0-5.347h27.777a2.673 2.673 0 1 1 0 5.347z" stroke="#000" stroke-linecap="round" stroke-width="3" transform="translate(-36.595 -36.492)"/><path d="m140.484 99.091h-27.777a2.673 2.673 0 1 1 0-5.347h27.777a2.673 2.673 0 0 1 0 5.347z" stroke="#000" stroke-linecap="round" stroke-width="3" transform="translate(-86.129 -70.985)"/><path d="m33.95 8.847h-27.777a2.673 2.673 0 1 1 0-5.347h27.777a2.673 2.673 0 1 1 0 5.347z" stroke="#000" stroke-linecap="round" stroke-width="3" transform="translate(-2 -2)"/></g><path d="m40.291 12.942h-27.212a1.425 1.425 0 0 1 0-2.85h27.212a1.425 1.425 0 0 1 0 2.85" fill="#f29021" transform="translate(-8.611 -7.345)"/><path d="m3.072 5.01h54.619v23.758h-54.619z" fill="none"/></svg>

<svg xmlns="http://www.w3.org/2000/svg" width="58.529" height="29.606" viewBox="0 0 58.529 29.606">
  <g id="Group_2519" data-name="Group 2519" transform="translate(-582.883 -2039.389)">
    <path id="Path_36391" data-name="Path 36391" d="M143.358,103.186H119.612a1.425,1.425,0,1,1,0-2.85h23.745a1.425,1.425,0,0,1,0,2.85" transform="translate(490.145 1963.059)" fill="#f29021"/>
    <path id="Path_36389" data-name="Path 36389" d="M74.8,57.9H59.993a1.425,1.425,0,0,1,0-2.85H74.8a1.425,1.425,0,0,1,0,2.85" transform="translate(539.679 1997.555)" fill="#f29021"/>
    <path id="Path_36388" data-name="Path 36388" d="M80.864,53.806H53.087a2.673,2.673,0,1,1,0-5.347H80.864a2.673,2.673,0,1,1,0,5.347Z" transform="translate(546.288 2002.897)" fill="none" stroke="#000" stroke-linecap="round" stroke-width="3"/>
    <path id="Path_36390" data-name="Path 36390" d="M140.484,99.091H112.707a2.673,2.673,0,1,1,0-5.347h27.777a2.673,2.673,0,0,1,0,5.347Z" transform="translate(496.754 1968.404)" fill="none" stroke="#000" stroke-linecap="round" stroke-width="3"/>
    <path id="Path_36392" data-name="Path 36392" d="M33.95,8.847H6.173a2.673,2.673,0,1,1,0-5.347H33.95a2.673,2.673,0,1,1,0,5.347Z" transform="translate(580.883 2037.389)" fill="none" stroke="#000" stroke-linecap="round" stroke-width="3"/>
    <path id="Path_36393" data-name="Path 36393" d="M40.291,12.942H13.079a1.425,1.425,0,0,1,0-2.85H40.291a1.425,1.425,0,0,1,0,2.85" transform="translate(574.272 2032.044)" fill="#f29021"/>
    <rect id="Rectangle_1177" data-name="Rectangle 1177" width="54.619" height="23.758" transform="translate(585.955 2044.399)" fill="none"/>
  </g>
</svg>
